X:1
T:Title
%%score { ( 1 2 ) | ( 3 4 ) }
L:1/8
M:6/8
K:F
V:1 treble nm="Grand Piano"
V:2 treble 
V:3 bass 
V:4 bass 
V:1
 z3 z z[Q:1/4=95] z/ G/ | A2 A [EG]AB | [FA]3 .F3 | [FB]2 B [B,DF]2 [DFB] | %4
[M:5/8] [FA]-[FA]- [FA]3 |[M:1/8] A |[M:3/4] [EG]2 [EG][EG] AB | A2 AA Bc | =B2 B[DFB] [Ec][Fd] | %9
[M:5/8] E2- [E-B] [EA]2 |[M:1/8] [GB] |[M:3/4] [FA]2 [FA][EG] AB | [FA]3 .F3 | %13
 [FB]2 B [B,DF]2 [DG] |[M:5/8] [EA]-[EA]- [EA]3 |[M:1/8] [CEA] |[M:3/4] [DFA]2 [FA] [EB]2 [EB] | %17
 [FA]2 [FA][Fd] c[DB] | [CFA][=B,F_A] [DFB] [CF=A]2 [_B,EG] |[M:5/8] [A,F]-[A,F]- [A,F]3 |] %20
V:2
 z3 z2 F | x6 | CCC z A,[CFA] | x6 |[M:5/8] C2 C C2 |[M:1/8] x |[M:3/4] x6 | x6 | x6 | %9
[M:5/8] [Cc]2 z z2 |[M:1/8] x |[M:3/4] x6 | CC .C2 A,[CFA] | x6 |[M:5/8] ^C2 C C2 |[M:1/8] x | %16
[M:3/4] x6 | x6 | x6 |[M:5/8] x5 |] %20
V:3
 z3 z2 A,/B,/ | F2 F[K:bass] z[K:treble] FG | F,F,F, [F,A,]F,_E, | [D,B,]3 z3 |[M:5/8] F,2 F, F,2 | %5
[M:1/8] [F,CF] |[M:3/4] [C,C]4[K:treble] FG | [F,CF]2 [F,CF]C- [G,CE][A,CF] | F2 .F2[K:bass] C=B, | %9
[M:5/8] C,2 [C,G,] [C,C]2 |[M:1/8] [E,C] |[M:3/4] [F,C]4[K:treble] FG | F,F, F,[F,A,] F,_E, | %13
 [D,B,]4 z2 |[M:5/8] A,,2 A,, A,,2 |[M:1/8] A,, |[M:3/4] z2 A, [C,C]3 | [F,C]4 EB,, | %18
 C,C, C, C,2 C, |[M:5/8] F,-F,- F,3 |] %20
V:4
 z3 z2 F, | [F,C]3[K:bass] [C,C]3[K:treble] | x6 | z2 F B,,2 B,, |[M:5/8] x5 |[M:1/8] x | %6
[M:3/4] z2 z [C,C]3[K:treble] | z2 z [F,F] z2 | [G,D]3[K:bass] G,,3 |[M:5/8] x5 |[M:1/8] x | %11
[M:3/4] z2 z [C,C]3[K:treble] | x6 | z2 F B,,2 B,, |[M:5/8] x5 |[M:1/8] x |[M:3/4] D,4 z2 | %17
 z2 z .[B,,B,]3 | x6 |[M:5/8] x5 |] %20

